app/dist/common/images/microcloud-hologram.svg

<svg height="18" viewBox="0 0 18 18" width="18" xmlns="http://www.w3.org/2000/svg" xmlns:xlink="http://www.w3.org/1999/xlink"><linearGradient id="a" gradientUnits="userSpaceOnUse" x1="12.65" x2="5.99" y1="5.07" y2="13.75"><stop offset="0" stop-color="#11c0de"/><stop offset=".33" stop-color="#3263f8"/><stop offset=".5" stop-color="#3a60f6"/><stop offset="1" stop-color="#fd0bd1"/></linearGradient><path d="m0 0h18v18h-18z" fill="#f0f3fa"/><path d="m5 12.92v-7.85c0-.1.08-.17.18-.18.04 0 .08 0 .12.03l3.34 1.78v-3.52c0-.14.16-.22.3-.16l4.06 2.01v7.9c0 .1-.1.18-.2.18-.04 0-.07-.01-.1-.03l-3.34-1.78v3.52c0 .14-.16.23-.3.16zm3.64-5.81-2.91 1.57v-3.15l2.9 1.58zm-2.91 5.36 2.9-1.58-2.9-1.57zm3.63-5.36 2.91 1.57v-3.15l-2.9 1.57zm2.91 5.36-2.9-1.58 2.9-1.57zm-6.54-3.47 2.9 1.58v-3.16l-2.89 1.58zm2.9 5.37-2.9-1.58 2.9-1.58zm3.64-9.16-2.9 1.59v-3.17zm-2.9 5.37 2.89-1.58-2.9-1.58v3.16z" fill="url(#a)" fill-rule="evenodd"/></svg>

<!-- by TradingView --><svg width="18" height="18" viewBox="0 0 18 18" xmlns="http://www.w3.org/2000/svg"><path fill="#F0F3FA" d="M0 0h18v18H0z"/><path fill-rule="evenodd" d="M5 12.92V5.07c0-.1.08-.17.18-.18.04 0 .08 0 .12.03L8.64 6.7V3.18c0-.14.16-.22.3-.16L13 5.03v7.9c0 .1-.1.18-.2.18-.04 0-.07-.01-.1-.03L9.36 11.3v3.52c0 .14-.16.23-.3.16L5 12.92Zm3.64-5.81L5.73 8.68V5.53l2.9 1.58Zm-2.91 5.36 2.9-1.58-2.9-1.57v3.15Zm3.63-5.36 2.91 1.57V5.53L9.37 7.1Zm2.91 5.36-2.9-1.58 2.9-1.57v3.15ZM5.73 9l2.9 1.58V7.42L5.74 9Zm2.9 5.37-2.9-1.58 2.9-1.58v3.16Zm3.64-9.16L9.37 6.8V3.63l2.9 1.58Zm-2.9 5.37L12.26 9l-2.9-1.58v3.16Z" fill="url(#aqmqisx2m)"/><defs><linearGradient id="aqmqisx2m" x1="12.65" y1="5.07" x2="5.99" y2="13.75" gradientUnits="userSpaceOnUse"><stop stop-color="#11C0DE"/><stop offset=".33" stop-color="#3263F8"/><stop offset=".5" stop-color="#3A60F6"/><stop offset="1" stop-color="#FD0BD1"/></linearGradient></defs></svg>
